src/assets/icons/beauty-service.svg

<svg viewBox="0 0 24 24" fill="currentColor" xmlns="http://www.w3.org/2000/svg">
<path d="M17.0926 4.36002H14.1963C13.673 4.36168 13.6926 5.14169 14.1963 5.13711H17.0926V5.53586H14.1963C13.6759 5.53127 13.6951 6.31086 14.1963 6.31295H17.0926V6.72045H14.1963C13.6759 6.72045 13.6951 7.49962 14.1963 7.49754H17.0926V7.88587H14.1963C13.6867 7.88962 13.6951 8.66963 14.1963 8.67213H17.0926V9.0613H14.1963C13.6867 9.05963 13.6846 9.83839 14.1963 9.83839H17.0926V10.2267H14.1963C13.6867 10.2284 13.6846 11.008 14.1963 11.0042H17.0926V11.4021H14.1963C13.6867 11.3976 13.6846 12.1763 14.1963 12.1792H17.0926V12.5667H14.1963C13.6867 12.5663 13.6951 13.3467 14.1963 13.3442H17.0926V20.9105C17.0943 22.0635 18.8455 22.0426 18.8505 20.9105V3.20418C18.8455 2.6775 18.413 2.01167 17.7013 2.00958H14.1963C13.673 2.01 13.6926 2.79001 14.1963 2.78667L17.0926 2.79626V3.18376H14.1963C13.6738 3.18126 13.6934 3.96085 14.1963 3.96126H17.0926V4.36002ZM13.9971 17.7743C13.9955 16.4284 12.6005 14.9809 10.9338 15.9184V10.7709L9.85587 2.28125C9.83337 2.05667 9.64295 2.00375 9.51503 2C9.38295 2.00375 9.11836 2.05667 9.08961 2.28125L8.0171 10.7709V15.9184C6.35043 14.9809 5.00042 16.4376 5 17.7639C5.00042 18.9439 5.90876 19.913 7.13793 19.9101C8.37627 19.913 9.26711 18.8268 9.26711 17.7639V12.4167H9.68378V17.7639C9.68378 18.9539 10.6055 19.8347 11.6296 19.8905C11.6125 20.543 11.8255 21.4739 12.2263 21.8431C12.6963 22.2764 13.2559 21.7222 13.0263 21.271C12.8046 20.851 12.5871 20.6022 12.7638 19.6851C13.5021 19.3435 13.9955 18.6243 13.9971 17.7743ZM7.18543 18.833C6.60376 18.8293 6.13376 18.3576 6.13292 17.7743C6.13376 17.1914 6.60376 16.7176 7.18543 16.7143C7.76294 16.7176 8.23336 17.1914 8.23752 17.7743C8.23336 18.358 7.76294 18.8297 7.18543 18.833ZM10.7567 17.7743C10.7605 17.1914 11.23 16.7176 11.8092 16.7143C12.3892 16.7176 12.8596 17.1914 12.8613 17.7743C12.8596 18.3576 12.3896 18.8293 11.8092 18.833C11.23 18.8297 10.76 18.358 10.7567 17.7743Z"/>
</svg>

<svg xmlns="http://www.w3.org/2000/svg" fill="currentColor" viewBox="0 0 24 24"><path d="M17.093 4.36h-2.897c-.523.002-.503.782 0 .777h2.897v.399h-2.897c-.52-.005-.5.775 0 .777h2.897v.407h-2.897c-.52 0-.5.78 0 .778h2.897v.388h-2.897c-.51.004-.5.784 0 .786h2.897v.39h-2.897c-.51-.002-.511.776 0 .776h2.897v.389h-2.897c-.51.001-.511.781 0 .777h2.897v.398h-2.897c-.51-.004-.511.774 0 .777h2.897v.388h-2.897c-.51 0-.5.78 0 .777h2.897v7.566c.001 1.154 1.753 1.133 1.758 0V3.204c-.005-.526-.438-1.192-1.15-1.194h-3.505c-.523 0-.503.78 0 .777l2.897.01v.387h-2.897c-.522-.003-.503.777 0 .777h2.897v.399Zm-3.096 13.414c-.002-1.346-1.396-2.793-3.063-1.856v-5.147L9.856 2.28c-.023-.224-.213-.277-.341-.281-.132.004-.397.057-.425.281l-1.073 8.49v5.147C6.35 14.981 5 16.438 5 17.764c0 1.18.909 2.149 2.138 2.146 1.238.003 2.13-1.083 2.13-2.146v-5.347h.416v5.347c0 1.19.921 2.07 1.946 2.127-.018.652.195 1.583.596 1.952.47.433 1.03-.12.8-.572-.221-.42-.439-.669-.262-1.586a2.095 2.095 0 0 0 1.233-1.91Zm-6.812 1.059a1.06 1.06 0 0 1 0-2.119 1.065 1.065 0 0 1 1.053 1.06 1.063 1.063 0 0 1-1.053 1.059Zm3.572-1.059a1.064 1.064 0 0 1 1.052-1.06 1.06 1.06 0 0 1 0 2.119 1.062 1.062 0 0 1-1.052-1.059Z"/></svg>
